local/share/icons/dracula-icons-main/symbolic/actions/align-horizontal-left-to-anchor-symbolic.svg

<?xml version="1.0" encoding="UTF-8"?>
<svg xmlns="http://www.w3.org/2000/svg" xmlns:xlink="http://www.w3.org/1999/xlink" width="16" height="16" viewBox="0 0 16 16">
<defs>
<filter id="filter-remove-color" x="0%" y="0%" width="100%" height="100%">
<feColorMatrix color-interpolation-filters="sRGB" values="0 0 0 0 1 0 0 0 0 1 0 0 0 0 1 0 0 0 1 0" />
</filter>
<mask id="mask-0">
<g filter="url(#filter-remove-color)">
<rect x="-1.6" y="-1.6" width="19.2" height="19.2" fill="rgb(0%, 0%, 0%)" fill-opacity="0.3"/>
</g>
</mask>
<clipPath id="clip-0">
<rect x="0" y="0" width="5" height="5"/>
</clipPath>
<g id="source-1015" clip-path="url(#clip-0)">
<path fill-rule="nonzero" fill="rgb(21.176471%, 21.176471%, 21.176471%)" fill-opacity="0.931" d="M 0.265625 0.527344 L 1.589844 0.527344 L 1.589844 1.324219 L 0.265625 1.324219 Z M 0.265625 0.527344 "/>
</g>
<mask id="mask-1">
<g filter="url(#filter-remove-color)">
<rect x="-1.6" y="-1.6" width="19.2" height="19.2" fill="rgb(0%, 0%, 0%)" fill-opacity="0.1"/>
</g>
</mask>
<clipPath id="clip-1">
<rect x="0" y="0" width="5" height="5"/>
</clipPath>
<g id="source-1019" clip-path="url(#clip-1)">
<path fill-rule="nonzero" fill="rgb(21.176471%, 21.176471%, 21.176471%)" fill-opacity="0.931" d="M 1.585938 1.058594 L 1.585938 1.851562 L 3.175781 1.851562 L 3.175781 1.058594 Z M 1.585938 2.644531 L 1.585938 3.441406 L 3.96875 3.441406 L 3.96875 2.644531 Z M 1.585938 2.644531 "/>
</g>
</defs>
<path fill-rule="nonzero" fill="rgb(21.176471%, 21.176471%, 21.176471%)" fill-opacity="1" d="M 1.324219 0 L 1.324219 0.265625 L 0.132812 0.265625 C 0.0976562 0.265625 0.0625 0.277344 0.0390625 0.304688 C 0.015625 0.328125 0 0.363281 0 0.398438 L 0 1.453125 C 0 1.527344 0.0585938 1.585938 0.132812 1.585938 L 1.320312 1.585938 L 1.320312 4.234375 L 1.851562 4.234375 L 1.851562 3.703125 L 4.101562 3.703125 C 4.175781 3.703125 4.234375 3.644531 4.234375 3.570312 L 4.234375 2.515625 C 4.234375 2.480469 4.21875 2.445312 4.195312 2.421875 C 4.167969 2.394531 4.136719 2.382812 4.101562 2.382812 L 1.851562 2.382812 L 1.851562 2.117188 L 3.308594 2.117188 C 3.34375 2.117188 3.375 2.101562 3.402344 2.078125 C 3.425781 2.054688 3.441406 2.019531 3.441406 1.984375 L 3.441406 0.925781 C 3.441406 0.890625 3.425781 0.855469 3.402344 0.832031 C 3.375 0.808594 3.34375 0.792969 3.308594 0.792969 L 1.851562 0.792969 L 1.851562 0 L 1.320312 0 Z M 0.265625 0.53125 L 1.324219 0.53125 L 1.324219 1.324219 L 0.265625 1.324219 L 0.265625 0.527344 Z M 1.851562 1.058594 L 3.175781 1.058594 L 3.175781 1.851562 L 1.851562 1.851562 Z M 1.851562 2.644531 L 3.96875 2.644531 L 3.96875 3.441406 L 1.851562 3.441406 Z M 1.851562 2.644531 "/>
<g mask="url(#mask-0)">
<use xlink:href="#source-1015"/>
</g>
<g mask="url(#mask-1)">
<use xlink:href="#source-1019"/>
</g>
</svg>

<svg xmlns="http://www.w3.org/2000/svg" viewBox="0 0 4.233 4.233" height="16" width="16"><path d="M1.323 0v.265H.133A.132.132 0 0 0 0 .397v1.058c0 .073.059.132.132.132h1.19v2.646h.53v-.529h2.249a.132.132 0 0 0 .132-.132V2.514a.132.132 0 0 0-.132-.133H1.852v-.264h1.455a.132.132 0 0 0 .133-.133V.926a.132.132 0 0 0-.133-.132H1.852V0h-.53zM.265.53h1.058v.793H.265V.529zm1.587.528h1.323v.794H1.852v-.794zm0 1.588H3.97v.794H1.852v-.794z" style="marker:none" fill="#363636"/><rect ry="0" rx="0" y=".529" x=".265" height=".794" width="1.323" style="marker:none;font-variant-east_asian:normal" opacity=".3" fill="#363636" fill-opacity=".931"/><path d="M1.587 1.058v.794h1.588v-.794zm0 1.588v.794H3.97v-.794z" opacity=".1" fill="#363636" fill-opacity=".931"/></svg>
